X:1
T:I KNOW VERY WELL HOW I GOT MY NAME
C:Street
Z:All Rights Reserved
L:1/8
Q:1/4=120
M:4/4
K:Bb
V:1 treble nm="MusicXML Part"
%%MIDI program 0
V:1
"F" z2 z2 z2 z2 |"Gm7" z2 z2 z2 z2 | z4 z2 z A |"F" c2 cc AA D2 |"Gm7" D6- DA |"F" c2 c2 AFzD- | %6
w: ||A|child in a cur io us|phase _ a|man with sul luen ways|
w: ||When|thri teen _ years _ old|_ _ Had|dyed his hair _ gold|
"Gm7" D2 z2 z2 FG |"F" A2 AG A2 AG |"Bbmaj7" A2 AA- AF- F2 |"F" z2 z2 z2 z2 |"Gm7" z2 z2 z2 z2 | %11
w: * Oh I|Know ver y well how I|got my name * * *|||
w: _|* * * * * I|don't need to be told _|||
"C" z GGA G2 A>F- |"Dm7" FD- D6 |"C" z/ AG/- GA G2 FA- |"Dm7" AF- FF/G/"Bb" A->F- F2 | z4 z DFG | %16
w: You think you were my first|_ love _|You think _ you were my first|_ love _ but your wrong _ _|you were the|
w: |||||
 AG F2- F3 D |"Bb/C" F2 G2 A2- A2 |"F" z2 z2 z2 z2 |"Gm7" z2 z2 z2 z2 |"F" z2 z2 z2 z2 | %21
w: on ly one _ that's|come and gone _||||
w: |||||
"Gm7" z2 z2 z2 z2 |] %22
w: |
w: |

